material/.icons/material/blood-bag.svg

<svg xmlns="http://www.w3.org/2000/svg" viewBox="0 0 24 24"><path d="M21 7c-1 0-1-1-1-1V5h-2v2h-2V6c0-1.73-1.25-5-6-5S4 4.27 4 6v13c0 .33-.1 2-2 2v2c2.93 0 4-2.39 4-4V6c0-.12.05-3 4-3 3.83 0 4 2.7 4 3v1h-2V5h-2v1s0 1-1 1-1 1-1 1v12s0 2 5 2h4c5 0 5-2 5-2V8s0-1-1-1m-6 12.4a3 3 0 01-3-3c0-2 3-5.4 3-5.4s3 3.4 3 5.4a3 3 0 01-3 3z"/></svg>

<?xml version="1.0" encoding="UTF-8"?><!DOCTYPE svg PUBLIC "-//W3C//DTD SVG 1.1//EN" "http://www.w3.org/Graphics/SVG/1.1/DTD/svg11.dtd"><svg xmlns="http://www.w3.org/2000/svg" xmlns:xlink="http://www.w3.org/1999/xlink" version="1.1" id="mdi-blood-bag" width="24" height="24" viewBox="0 0 24 24"><path d="M21,7C20,7 20,6 20,6V5H18V7H16V6C16,4.27 14.75,1 10,1C5.25,1 4,4.27 4,6V19C4,19.33 3.9,21 2,21V23C4.93,23 6,20.61 6,19V6C6,5.88 6.05,3 10,3C13.83,3 14,5.7 14,6V7H12V5H10V6C10,6 10,7 9,7C8,7 8,8 8,8V20C8,20 8,22 13,22C13.24,22 14.13,22 17,22C22,22 22,20 22,20V8C22,8 22,7 21,7M15,19.4A3,3 0 0,1 12,16.4C12,14.4 15,11 15,11C15,11 18,14.4 18,16.4A3,3 0 0,1 15,19.4Z" /></svg>
